X:1
T:Title
%%score { 1 | ( 2 3 ) }
L:1/8
M:6/4
K:Ab
V:1 treble nm="Grand Piano"
V:2 bass 
V:3 bass 
V:1
 z6 z4 E2 | [CE]2 =D2 E2 [_DF]4 E2 | [CE]4 [B,D]2 [A,C]4 C2 | [F,D]2 F2 F2 [A,CE]4 [A,C]2 | %4
[M:5/4] [G,B,D]2- [G,B,D]2- [G,B,D]6 |[M:1/4] E2 |[M:6/4] [CE]2 =D2 E2 [_DF]4 E2 | %7
 [G,CE]4 [G,B,D]2 [A,C]4 [A,F]F | [G,E]2 =D2 E2 D4 D2 | D12 | [CA]6 [Ec]6 | d2 c2 B2 [CA]6 | %12
 [FA]2 [FG]2 [FA]2 [Fd]4 [DF]2 | [CE]6- [CE]4 [CE]2 | [Ec]2 [Ec]2 [Ec]2 [Ed]4 G2 | c4 B2 A4 B2 | %16
 c2 d2 c2 c4 B2 | [CA]12 |] %18
V:2
 z6 z4 E,2 | z2 _C2 =C2 z4 C2 | E,4 E,,2 z4 E,2 | z2 A,2 D2 A,,4 C,2 |[M:5/4] E,2- E,2- E,6 | %5
[M:1/4] E,2 |[M:6/4] z2 _C2 =C2 z4 C2 | E,4 =E,2 F,4 z A, | z2 F,2 G,2 [F,A,]4 [B,,F,]2 | %9
 [E,G,B,]12 | [A,,E,]6 [A,,A,]6 | [E,G,E]2 [E,A,E]2 [E,G,D]2 [A,,A,]6 | %12
 [D,A,]2 [D,A,]2 [D,A,]2 [D,A,]4 [D,A,]2 | [A,,A,]6- [A,,A,]4 [A,,A,]2 | %14
 [A,,A,]2 [A,,A,]2 [A,,A,]2 [B,,G,]4 [E,DE]2 | [E,A,E]4 [=E,G,D]2 [F,A,C]4 [F,A,=D]2 | %16
 [E,A,E]2 [E,G,E]2 [E,A,E]2 [E,A,E]4 [E,G,D]2 | [A,,A,]12 |] %18
V:3
 x12 | [A,,A,]6 [A,,A,]6 | z6 A,,6 | D,6 z6 |[M:5/4] x10 |[M:1/4] x2 |[M:6/4] [A,,A,]6 [A,,A,]6 | %7
 z6 z4 F,,2 | B,,12 | x12 | x12 | x12 | x12 | x12 | x12 | x12 | x12 | x12 |] %18

